src/assets/images/100pechei.svg

<svg width="200" height="36" viewBox="0 0 200 36" fill="none" xmlns="http://www.w3.org/2000/svg">
<g style="mix-blend-mode:luminosity" clip-path="url(#clip0)">
<path d="M65.8811 29.7077H61.9182V14.6673H54.4297V29.7077H50.4668V11.2338H65.8811V29.7077ZM87.7701 21.8703H72.7371C72.9976 23.2792 73.6302 24.4548 74.6441 25.3878C75.6674 26.3115 76.8768 26.778 78.3094 26.778C80.4489 26.778 82.0211 25.817 83.0164 23.8763H87.4072C85.8351 28.1029 82.8118 30.2116 78.3094 30.2116C75.5279 30.2116 73.2395 29.2972 71.4441 27.4591C69.6394 25.6211 68.737 23.2792 68.737 20.4708C68.737 17.7743 69.658 15.4697 71.4906 13.557C73.3232 11.6536 75.5651 10.6926 78.2349 10.6926C80.328 10.6926 82.1699 11.2524 83.77 12.3721C85.37 13.4917 86.4956 15.0312 87.1561 17.0186C87.5654 18.2408 87.7701 19.855 87.7701 21.8703ZM83.7048 18.6047C83.3979 17.2891 82.756 16.2441 81.7885 15.4511C80.8303 14.6673 79.6861 14.2755 78.3466 14.2755C75.4163 14.2755 73.5743 15.7123 72.8115 18.6047H83.7048ZM104.543 29.7077H100.58V21.9449C99.2122 22.5328 97.6215 22.8313 95.8354 22.8313C94.1795 22.8313 92.8213 22.3835 91.7702 21.4691C90.6445 20.5174 90.0864 19.2298 90.0864 17.6064V11.2338H93.9469V16.9439C93.9469 18.698 94.7656 19.5657 96.44 19.5657C98.0122 19.5657 99.3983 19.2765 100.58 18.67V11.2338H104.543V29.7077ZM126.431 21.8703H111.399C111.659 23.2792 112.292 24.4548 113.315 25.3878C114.329 26.3115 115.547 26.778 116.971 26.778C119.11 26.778 120.683 25.817 121.678 23.8763H126.078C124.506 28.1029 121.464 30.2116 116.971 30.2116C114.189 30.2116 111.901 29.2972 110.105 27.4591C108.31 25.6211 107.417 23.2792 107.417 20.4708C107.417 17.7743 108.329 15.4697 110.161 13.557C111.994 11.6536 114.245 10.6926 116.906 10.6926C118.999 10.6926 120.841 11.2524 122.441 12.3721C124.041 13.4824 125.166 15.0312 125.845 17.0186C126.236 18.2408 126.431 19.855 126.431 21.8703ZM122.366 18.6047C122.059 17.2891 121.417 16.2441 120.45 15.4511C119.492 14.6673 118.348 14.2755 117.008 14.2755C114.078 14.2755 112.236 15.7123 111.473 18.6047H122.366ZM145.79 29.7077H141.753V17.1958L132.962 29.7077H129.325V11.2338H133.287V23.6617L142.153 11.2338H145.79V29.7077Z" fill="#E30A1A"/>
<path fill-rule="evenodd" clip-rule="evenodd" d="M140.096 8.10799C139.426 6.85773 138.449 4.09597 142.142 2.8737C142.114 2.92035 141.956 3.10696 141.789 3.31222C141.528 3.64811 141.277 4.99167 142.217 4.99167C145.696 4.99167 144.887 -0.522522 151.463 0.0559556C148.747 0.20524 148.412 1.53014 148.235 3.35887C148.077 5.001 146.152 8.81709 140.096 8.10799Z" fill="#E20D1B"/>
<path d="M153.036 25.3503C154.246 25.3503 155.213 26.33 155.213 27.5336C155.213 28.7372 154.236 29.7169 153.036 29.7169C151.836 29.7169 150.859 28.7372 150.859 27.5336C150.859 26.33 151.827 25.3503 153.036 25.3503Z" fill="#E20D1B"/>
<path d="M0 15.0497C0 14.9471 0 11.1963 0 11.1963H6.41876V29.7169L2.44657 29.7076V15.087L0 15.0497Z" fill="#E30613"/>
<path d="M24.5114 15.1524V11.1777H9.32031V29.689V29.7263H24.5114V29.689V25.7143V15.1524ZM20.5485 25.7143H20.0927C20.1671 25.0519 19.8787 24.3614 19.5438 23.9322C19.1066 23.3724 18.7252 23.4097 18.2694 22.9899C17.7949 22.5513 17.3391 21.693 17.5159 19.8456C14.6972 22.1128 15.86 24.3334 15.2833 24.3054C14.7437 24.2774 14.9298 22.5513 14.9298 22.5513C14.9298 22.5513 14.0925 22.9992 13.8041 24.3428C13.6925 24.8746 13.7855 25.3691 13.8972 25.7236H13.2832V15.1524H20.5485V25.7143Z" fill="#E30A1A"/>
<path d="M42.6051 11.1777H27.4141V29.689V29.7263H42.6051V29.689V11.1777ZM38.6422 25.7143H38.1864C38.2608 25.0519 37.9725 24.3614 37.6376 23.9322C37.2003 23.3724 36.8189 23.4097 36.3631 22.9899C35.8887 22.5513 35.4329 21.693 35.6096 19.8456C32.7909 22.1128 33.9538 24.3334 33.377 24.3054C32.8375 24.2774 33.0235 22.5513 33.0235 22.5513C33.0235 22.5513 32.1863 22.9992 31.8979 24.3428C31.7863 24.8746 31.8793 25.3691 31.9909 25.7236H31.377V15.1524H38.6422V25.7143Z" fill="#E30A1A"/>
<path d="M174.86 12.176C176.237 12.9411 177.306 14.0141 178.088 15.4043C178.869 16.7945 179.26 18.39 179.26 20.2094C179.26 22.0195 178.869 23.6336 178.088 25.0331C177.306 26.4327 176.227 27.515 174.86 28.2707C173.483 29.0358 171.93 29.409 170.19 29.409C167.781 29.409 165.874 28.6066 164.46 26.9925V35.6883H160.273V11.243H164.255V13.5942C164.943 12.7452 165.799 12.1014 166.813 11.6815C167.827 11.2523 168.953 11.047 170.181 11.047C171.93 11.0377 173.483 11.4203 174.86 12.176ZM173.52 24.2681C174.516 23.2417 175.009 21.8795 175.009 20.2C175.009 18.5206 174.516 17.1677 173.52 16.132C172.525 15.0964 171.26 14.5832 169.716 14.5832C168.711 14.5832 167.809 14.8165 166.999 15.2737C166.199 15.7308 165.557 16.384 165.092 17.2423C164.627 18.0914 164.385 19.0804 164.385 20.2C164.385 21.3197 164.618 22.3087 165.092 23.1577C165.557 24.0068 166.199 24.6599 166.999 25.1264C167.799 25.5836 168.711 25.8169 169.716 25.8169C171.26 25.8169 172.525 25.3037 173.52 24.2681Z" fill="#E30A1A"/>
<path fill-rule="evenodd" clip-rule="evenodd" d="M199.789 11.243H199.724L199.733 11.2336H195.715L190.598 23.391L184.486 11.243H180.133L188.514 28.3454L185.407 35.735H189.203L191.333 30.7619L199.789 11.243Z" fill="#E30A1A"/>
</g>
<defs>
<clipPath id="clip0">
<rect width="199.791" height="35.735" fill="white"/>
</clipPath>
</defs>
</svg>

<svg width="200" height="36" fill="none" xmlns="http://www.w3.org/2000/svg"><g style="mix-blend-mode:luminosity" clip-path="url(#clip0)"><path d="M65.881 29.708h-3.963v-15.04H54.43v15.04h-3.963V11.234H65.88v18.474zm21.89-7.838H72.736c.26 1.41.893 2.585 1.907 3.518 1.023.923 2.233 1.39 3.665 1.39 2.14 0 3.712-.961 4.707-2.902h4.391c-1.572 4.227-4.595 6.336-9.098 6.336-2.781 0-5.07-.915-6.865-2.753-1.805-1.838-2.707-4.18-2.707-6.988 0-2.697.921-5.001 2.754-6.914 1.832-1.903 4.074-2.864 6.744-2.864 2.093 0 3.935.56 5.535 1.68 1.6 1.119 2.726 2.658 3.386 4.646.41 1.222.614 2.836.614 4.851zm-4.066-3.265c-.307-1.316-.949-2.36-1.916-3.154-.959-.784-2.103-1.176-3.442-1.176-2.93 0-4.773 1.437-5.535 4.33h10.893zm20.838 11.103h-3.963v-7.763c-1.368.588-2.959.886-4.745.886-1.655 0-3.014-.447-4.065-1.362-1.126-.952-1.684-2.24-1.684-3.863v-6.372h3.86v5.71c0 1.754.82 2.622 2.494 2.622 1.572 0 2.958-.29 4.14-.896v-7.436h3.963v18.474zm21.888-7.838h-15.032c.26 1.41.893 2.585 1.916 3.518 1.014.923 2.232 1.39 3.656 1.39 2.139 0 3.712-.961 4.707-2.902h4.4c-1.572 4.227-4.614 6.336-9.107 6.336-2.782 0-5.07-.915-6.866-2.753-1.795-1.838-2.688-4.18-2.688-6.988 0-2.697.912-5.001 2.744-6.914 1.833-1.903 4.084-2.864 6.745-2.864 2.093 0 3.935.56 5.535 1.68 1.6 1.11 2.725 2.658 3.404 4.646.391 1.222.586 2.836.586 4.851zm-4.065-3.265c-.307-1.316-.949-2.36-1.916-3.154-.958-.784-2.102-1.176-3.442-1.176-2.93 0-4.772 1.437-5.535 4.33h10.893zm23.424 11.103h-4.037V17.196l-8.791 12.512h-3.637V11.234h3.962v12.428l8.866-12.428h3.637v18.474z" fill="#E30A1A"/><path fill-rule="evenodd" clip-rule="evenodd" d="M140.096 8.108c-.67-1.25-1.647-4.012 2.046-5.234-.028.046-.186.233-.353.438-.261.336-.512 1.68.428 1.68 3.479 0 2.67-5.515 9.246-4.936-2.716.15-3.051 1.474-3.228 3.303-.158 1.642-2.083 5.458-8.139 4.749z" fill="#E20D1B"/><path d="M153.036 25.35c1.21 0 2.177.98 2.177 2.184a2.183 2.183 0 01-2.177 2.183c-1.2 0-2.177-.98-2.177-2.183 0-1.204.968-2.184 2.177-2.184z" fill="#E20D1B"/><path d="M0 15.05v-3.854h6.419v18.52l-3.972-.008V15.087L0 15.05z" fill="#E30613"/><path d="M24.511 15.152v-3.974H9.321v18.548h15.19V15.152zM20.55 25.714h-.456c.074-.662-.214-1.353-.55-1.782-.436-.56-.818-.522-1.274-.942-.474-.439-.93-1.297-.753-3.144-2.819 2.267-1.656 4.487-2.233 4.46-.54-.029-.353-1.755-.353-1.755s-.838.448-1.126 1.792c-.111.532-.018 1.026.093 1.38h-.614v-10.57h7.266v10.561zm22.055-14.536h-15.19v18.548h15.19V11.178zm-3.963 14.536h-.456c.075-.662-.214-1.353-.548-1.782-.438-.56-.82-.522-1.275-.942-.474-.439-.93-1.297-.753-3.144-2.82 2.267-1.656 4.487-2.233 4.46-.54-.029-.354-1.755-.354-1.755s-.837.448-1.125 1.792c-.112.532-.019 1.026.093 1.38h-.614v-10.57h7.265v10.561zM174.86 12.176c1.377.765 2.446 1.838 3.228 3.228.781 1.39 1.172 2.986 1.172 4.805 0 1.81-.391 3.425-1.172 4.824-.782 1.4-1.861 2.482-3.228 3.238-1.377.765-2.93 1.138-4.67 1.138-2.409 0-4.316-.802-5.73-2.416v8.695h-4.187V11.243h3.982v2.351a6.412 6.412 0 012.558-1.912c1.014-.43 2.14-.635 3.368-.635 1.749-.01 3.302.373 4.679 1.129zm-1.34 12.092c.996-1.026 1.489-2.389 1.489-4.068 0-1.68-.493-3.032-1.489-4.068-.995-1.036-2.26-1.549-3.804-1.549-1.005 0-1.907.233-2.717.69a4.914 4.914 0 00-1.907 1.97c-.465.848-.707 1.837-.707 2.957 0 1.12.233 2.109.707 2.958a5.035 5.035 0 001.907 1.968c.8.458 1.712.69 2.717.69 1.544 0 2.809-.512 3.804-1.548z" fill="#E30A1A"/><path fill-rule="evenodd" clip-rule="evenodd" d="M199.789 11.243h-.065l.009-.01h-4.018l-5.117 12.158-6.112-12.148h-4.353l8.381 17.102-3.107 7.39h3.796l2.13-4.973 8.456-19.519z" fill="#E30A1A"/></g><defs><clipPath id="clip0"><path fill="#fff" d="M0 0h199.791v35.735H0z"/></clipPath></defs></svg>
